X: 37159
T: Sioux Girl, The
R: jig
M: 6/8
K: Gmajor
|:DEG A2G|B2e dBA|DEG A2B|AGE GAB|
DEG A2G|B2e dBA|Bee dBA|1 GEE GAB:|2 GEE GBd||
|:~e3 dBA|BGG G2A|B2e efg|B2e edB|
~e3 dBA|BGG G2A|Bee dBA|1 GEE GBd:|2 GEE GAB||

